X:1
T:Title
%%score { ( 1 3 ) | ( 2 4 ) }
L:1/8
M:4/4
K:Ab
V:1 treble nm="Grand Piano"
V:3 treble 
V:2 bass 
V:4 bass 
V:1
 z4 z2[Q:1/4=92] [FA]2 | [Fd]>[Fd] [Fd][Fd] [Fd] [FA]2 F | A>A AA _G3 G | c>c cc c _G2 G | %4
 [E_G]>[CG] [DG][EA] [DF]3 [FA] | [Fd]>[Fd] [Fd][Fd] [Fd] [FA]2 F | F>F _GA B2 [Gc]>[Gc] | %7
 [Fd]>[Fd] [Fd][Fd] [Fc][FB]AG |[M:7/8] A-A-A- A3 z |[M:1/8] A |[M:4/4] F>F F=E F [FA]2 F | %11
 A>A AG _G3 G | B>B B_G B B2 c | [FB]>[FA] [FA][=EG] [FA]3 [FA] | F>F F=E F [FA]2 [FA] | %15
 [Fd]>[Fd] [Fe][Fe] [_GB]2 [Gc]>[Gc] | [Fd]>[Fc] [Fd][FA] [_GB] [Gd]3 |[M:9/8] [Ge]3 c3 [Fd]3 |] %18
V:2
 z4 z2 [D,A,]2 | [D,A,]>[D,A,] [D,A,][D,A,] [D,A,] [D,D]2 [D,A,D] | %2
 [A,DF]>[A,DF] [A,DF][A,DF] [A,CE]3 [A,CE] | %3
 [A,E_G]>[A,EG] [A,EG][A,EG] [A,EG][K:bass] [A,CE]2 [A,CE] | %4
 [A,,A,]>[A,,A,] [A,,A,][C,A,] [D,A,]3 [D,A,] | [D,A,]>[D,A,] [D,A,][D,A,] [D,A,] [D,D]2 [D,A,D] | %6
 [D,A,D]>[D,A,D] [D,A,C][F,A,D] [_G,D]2 [E,A,]>[E,A,] | %7
 [D,A,]>[D,A,] [B,,B,][B,,B,] [C,=A,][D,B,][E,CE][E,B,D] | %8
[M:7/8] A,-[A,-B,][A,-C] [A,-D] [A,E]2 z |[M:1/8] [A,C] | %10
[M:4/4] [D,A,D]>[D,A,D] [D,A,D][D,G,D] [D,A,D] [D,D]2 [D,A,D] | %11
 [F,A,D]>[F,A,D] [F,A,D][=E,A,D] [_E,A,C]3[K:treble] [A,C] | %12
 [A,C_G]>[A,CG] [A,CG][A,C] [A,CG] [A,CG]2 [A,CG] | [D,D]>[D,D] [D,D][D,B,] [D,A,]3 [D,D] | %14
 [D,A,D]>[D,A,D] [D,A,D][D,G,D] [D,A,D] [D,D]2 [D,D] | %15
 [D,B,]>[D,B,] [D,_C][D,C] [_G,B,]2 [E,A,]>[E,A,] | [D,A,]>[D,A,] [D,A,][D,D] [_G,D] [G,B,]3 | %17
[M:9/8] [E,B,]3 [A,_G]3 [D,A,]3 |] %18
V:3
 x8 | x8 | x8 | x8 | x8 | x8 | x8 | x8 |[M:7/8] z DE F _G2 z |[M:1/8] x |[M:4/4] x8 | x8 | x8 | %13
 x8 | x8 | x8 | x8 |[M:9/8] x9 |] %18
V:4
 x8 | x8 | x8 | x5[K:bass] x3 | x8 | x8 | x8 | x8 |[M:7/8] C z z z z z2 |[M:1/8] x |[M:4/4] x8 | %11
 x7[K:treble] x | x8 | x8 | x8 | x8 | x8 |[M:9/8] x9 |] %18

